svg/device_activating.svg

<svg width="24" height="24" viewBox="0 0 24 24" xmlns="http://www.w3.org/2000/svg">
<path d="M17.4444 10H6.55556C6.143 10 5.74733 10.1639 5.45561 10.4556C5.16389 10.7473 5 11.143 5 11.5556V22.4444C5 22.857 5.16389 23.2527 5.45561 23.5444C5.74733 23.8361 6.143 24 6.55556 24H17.4444C17.857 24 18.2527 23.8361 18.5444 23.5444C18.8361 23.2527 19 22.857 19 22.4444V11.5556C19 11.143 18.8361 10.7473 18.5444 10.4556C18.2527 10.1639 17.857 10 17.4444 10ZM17.4444 20.8889C17.4444 21.3014 17.2806 21.6971 16.9888 21.9888C16.6971 22.2806 16.3014 22.4444 15.8889 22.4444C15.4763 22.4444 15.0807 22.2806 14.7889 21.9888C14.4972 21.6971 14.3333 21.3014 14.3333 20.8889C14.3333 20.4763 14.4972 20.0807 14.7889 19.7889C15.0807 19.4972 15.4763 19.3333 15.8889 19.3333C16.3014 19.3333 16.6971 19.4972 16.9888 19.7889C17.2806 20.0807 17.4444 20.4763 17.4444 20.8889ZM17.4444 12.7222C17.4444 13.0316 17.3215 13.3284 17.1027 13.5472C16.8839 13.766 16.5872 13.8889 16.2778 13.8889H7.72222C7.4128 13.8889 7.11606 13.766 6.89726 13.5472C6.67847 13.3284 6.55556 13.0316 6.55556 12.7222C6.55556 12.4128 6.67847 12.1161 6.89726 11.8973C7.11606 11.6785 7.4128 11.5556 7.72222 11.5556H16.2778C16.5872 11.5556 16.8839 11.6785 17.1027 11.8973C17.3215 12.1161 17.4444 12.4128 17.4444 12.7222Z" />
<path d="M8.45997 7.46L7.04997 6.05C8.31997 4.78 10.07 4 12 4C13.93 4 15.68 4.78 16.95 6.05L15.54 7.46C14.63 6.56 13.38 6 12 6C10.62 6 9.36997 6.56 8.45997 7.46Z" />
<path d="M4.21997 3.22C6.20997 1.23 8.95997 0 12 0C15.04 0 17.79 1.23 19.77 3.23L18.36 4.64C16.74 3.01 14.49 2 12 2C9.50997 2 7.25997 3.01 5.62997 4.63L4.21997 3.22Z" />
</svg>

<svg width="24" height="24" viewBox="0 0 24 24" xmlns="http://www.w3.org/2000/svg"><path d="M17.444 10H6.556A1.556 1.556 0 0 0 5 11.556v10.888A1.556 1.556 0 0 0 6.556 24h10.888A1.556 1.556 0 0 0 19 22.444V11.556A1.556 1.556 0 0 0 17.444 10zm0 10.889a1.555 1.555 0 1 1-3.11 0 1.555 1.555 0 0 1 3.11 0zm0-8.167a1.167 1.167 0 0 1-1.166 1.167H7.722a1.167 1.167 0 1 1 0-2.333h8.556a1.167 1.167 0 0 1 1.166 1.166zM8.46 7.46L7.05 6.05A6.976 6.976 0 0 1 12 4c1.93 0 3.68.78 4.95 2.05l-1.41 1.41a5.022 5.022 0 0 0-7.08 0z"/><path d="M4.22 3.22C6.21 1.23 8.96 0 12 0s5.79 1.23 7.77 3.23l-1.41 1.41A8.937 8.937 0 0 0 12 2C9.51 2 7.26 3.01 5.63 4.63L4.22 3.22z"/></svg>
